public/assets/logo4.svg

<svg width="145" height="33" viewBox="0 0 145 33" fill="none" xmlns="http://www.w3.org/2000/svg">
<path fill-rule="evenodd" clip-rule="evenodd" d="M3.40093 19.3369C4.01419 19.9466 4.01418 20.9352 3.40091 21.5449L3.3695 21.5761C2.75623 22.1859 1.76192 22.1858 1.14866 21.5761C0.535399 20.9664 0.535408 19.9778 1.14868 19.3681L1.18009 19.3369C1.79336 18.7271 2.78767 18.7272 3.40093 19.3369Z" fill="#D1D1D1"/>
<path fill-rule="evenodd" clip-rule="evenodd" d="M10.7837 19.8071C11.3959 20.418 11.3941 21.4065 10.7797 22.0151L6.42976 26.3244C5.81538 26.933 4.82108 26.9312 4.20892 26.3204C3.59676 25.7095 3.59856 24.721 4.21294 24.1123L8.56287 19.8031C9.17725 19.1945 10.1715 19.1963 10.7837 19.8071Z" fill="#AAAAAA"/>
<path fill-rule="evenodd" clip-rule="evenodd" d="M16.6868 27.2252C17.1678 26.5077 18.1428 26.3139 18.8645 26.7922L18.9587 26.8546C19.6803 27.3329 19.8753 28.3023 19.3942 29.0198C18.9132 29.7372 17.9382 29.9311 17.2165 29.4528L17.1223 29.3903C16.4007 28.912 16.2057 27.9427 16.6868 27.2252Z" fill="#D1D1D1"/>
<path fill-rule="evenodd" clip-rule="evenodd" d="M27.0506 19.2431C27.6639 19.8529 27.6639 20.8414 27.0506 21.4511L24.9149 23.5745C24.3017 24.1842 23.3074 24.1842 22.6941 23.5745C22.0808 22.9648 22.0808 21.9762 22.6941 21.3665L24.8298 19.2431C25.4431 18.6334 26.4374 18.6334 27.0506 19.2431Z" fill="#AAAAAA"/>
<path fill-rule="evenodd" clip-rule="evenodd" d="M27.0822 11.3897C27.6954 11.9995 27.6954 12.988 27.0822 13.5977L11.2999 29.2889C10.6867 29.8986 9.69236 29.8986 9.07909 29.2889C8.46582 28.6791 8.46582 27.6906 9.07909 27.0809L24.8613 11.3897C25.4746 10.78 26.4689 10.78 27.0822 11.3897Z" fill="#969696"/>
<path fill-rule="evenodd" clip-rule="evenodd" d="M24.0979 6.56539C24.7111 7.17512 24.7111 8.16368 24.0979 8.77341L15.0211 17.7978C14.4079 18.4075 13.4136 18.4075 12.8003 17.7978C12.187 17.188 12.187 16.1995 12.8003 15.5897L21.877 6.56539C22.4903 5.95566 23.4846 5.95566 24.0979 6.56539Z" fill="#969696"/>
<path fill-rule="evenodd" clip-rule="evenodd" d="M19.3069 3.50441C19.9206 4.11372 19.9212 5.10229 19.3084 5.71242L7.64052 17.3285C7.02767 17.9387 6.03336 17.9393 5.41968 17.33C4.806 16.7207 4.80533 15.7321 5.41819 15.122L17.0861 3.50589C17.6989 2.89575 18.6932 2.89509 19.3069 3.50441Z" fill="#969696"/>
<path fill-rule="evenodd" clip-rule="evenodd" d="M7.75249 7.22305C8.3647 7.83383 8.36299 8.82239 7.74866 9.43107L3.17888 13.9589C2.56456 14.5675 1.57025 14.5658 0.958042 13.9551C0.34583 13.3443 0.347541 12.3557 0.961864 11.747L5.53165 7.21925C6.14597 6.61058 7.14027 6.61228 7.75249 7.22305Z" fill="#AAAAAA"/>
<path fill-rule="evenodd" clip-rule="evenodd" d="M10.5513 2.70441C11.4186 2.70441 12.1217 3.40343 12.1217 4.26571V4.42184C12.1217 5.28413 11.4186 5.98315 10.5513 5.98315C9.68404 5.98315 8.98096 5.28413 8.98096 4.42184V4.26571C8.98096 3.40343 9.68404 2.70441 10.5513 2.70441Z" fill="#D1D1D1"/>
<path d="M45.2914 16.0671C45.7477 16.6877 45.985 17.4544 45.985 18.3305C45.985 19.0972 45.7842 19.7726 45.4009 20.3749C44.9993 20.9956 44.4699 21.4701 43.7763 21.7987C43.0827 22.1455 42.2978 22.3098 41.4216 22.3098H34.3027V7.88953H40.947C42.316 7.88953 43.393 8.23634 44.1961 8.92998C44.981 9.62361 45.3826 10.5363 45.3826 11.6863C45.3826 12.4529 45.2001 13.1283 44.835 13.6759C44.4699 14.2235 43.9588 14.6251 43.32 14.8441C44.1596 15.0267 44.8168 15.4465 45.2914 16.0671ZM37.1503 13.8219H40.0161C40.8557 13.8219 41.4764 13.7124 41.8779 13.4569C42.2795 13.2013 42.4803 12.818 42.4803 12.2886C42.4803 11.741 42.2613 11.3212 41.8414 11.0474C41.4216 10.7918 40.7827 10.6458 39.9248 10.6458H37.1503V13.8219ZM42.4073 19.1337C42.8271 18.8599 43.0462 18.4401 43.0462 17.856C43.0462 17.3266 42.8271 16.925 42.4256 16.6695C42.024 16.4139 41.3851 16.2861 40.5272 16.2861H37.1503V19.5535H40.4542C41.3303 19.5535 41.9692 19.4258 42.4073 19.1337Z" fill="#0E0E0E"/>
<path d="M47.4881 11.1752C47.1595 10.8466 46.9952 10.445 46.9952 9.93392C46.9952 9.45933 47.1595 9.05775 47.4881 8.72919C47.8166 8.41888 48.2182 8.2546 48.7293 8.2546C49.2221 8.2546 49.6237 8.41888 49.9523 8.72919C50.2808 9.05775 50.4451 9.45933 50.4451 9.93392C50.4451 10.4268 50.2808 10.8283 49.9523 11.1569C49.6237 11.4855 49.2221 11.6498 48.7293 11.6498C48.2182 11.6498 47.8166 11.5037 47.4881 11.1752ZM47.3603 12.818H50.0801V22.3098H47.3603V12.818Z" fill="#0E0E0E"/>
<path d="M53.6267 21.963C52.86 21.5249 52.2576 20.9225 51.8378 20.1559C51.3997 19.3892 51.1989 18.5313 51.1989 17.5456C51.1989 16.5782 51.3997 15.7203 51.8378 14.9536C52.2576 14.187 52.86 13.6029 53.6267 13.1648C54.3933 12.745 55.2695 12.5259 56.2552 12.5259C57.2409 12.5259 58.117 12.745 58.8837 13.1648C59.6503 13.6029 60.2344 14.187 60.6725 14.9536C61.1106 15.7203 61.3296 16.5782 61.3296 17.5456C61.3296 18.5313 61.1106 19.3892 60.6725 20.1559C60.2344 20.9225 59.6321 21.5249 58.8654 21.963C58.0988 22.4011 57.2226 22.6019 56.2552 22.6019C55.2695 22.6019 54.3933 22.4011 53.6267 21.963ZM57.9527 19.4988C58.3908 18.9877 58.6099 18.3488 58.6099 17.5456C58.6099 16.7607 58.3908 16.1219 57.9527 15.6108C57.5147 15.1179 56.9488 14.8624 56.2552 14.8624C55.5615 14.8624 55.0139 15.1179 54.5758 15.6108C54.1378 16.1219 53.9187 16.7607 53.9187 17.5456C53.9187 18.3488 54.1378 18.9877 54.5758 19.4988C55.0139 20.0099 55.5615 20.2654 56.2552 20.2654C56.9488 20.2654 57.5147 20.0099 57.9527 19.4988Z" fill="#0E0E0E"/>
<path d="M63.3642 21.7257C62.5428 21.1416 62.123 20.3202 62.1047 19.2797H64.788C64.788 19.7361 64.9888 20.0829 65.3538 20.3384C65.7189 20.594 66.1935 20.7218 66.7776 20.7218C67.2705 20.7218 67.672 20.6305 67.9641 20.4114C68.2561 20.1924 68.4204 19.9369 68.4204 19.6448C68.4204 19.298 68.2379 19.0607 67.8728 18.9147C67.5077 18.7869 66.9601 18.6591 66.1935 18.5496C65.3903 18.4401 64.7332 18.3123 64.2221 18.1663C63.711 18.0202 63.2547 17.7464 62.8896 17.3449C62.5245 16.9433 62.342 16.3774 62.342 15.6473C62.342 14.6981 62.7253 13.9314 63.5285 13.3656C64.3316 12.818 65.4268 12.5259 66.8141 12.5259C68.0736 12.5259 69.0775 12.8362 69.8442 13.4386C70.6108 14.041 71.0307 14.8624 71.1219 15.9028H68.4569C68.4204 15.4465 68.2561 15.0814 67.9458 14.8076C67.6173 14.5521 67.1974 14.406 66.6498 14.406C66.1387 14.406 65.7554 14.5156 65.4816 14.7163C65.1895 14.9354 65.0618 15.2092 65.0618 15.5378C65.0618 15.8663 65.2261 16.1036 65.5729 16.2314C65.9197 16.3774 66.4673 16.4869 67.1974 16.5599C68.0006 16.6695 68.676 16.8155 69.2053 16.9615C69.7164 17.1076 70.1728 17.3996 70.5561 17.8012C70.9212 18.2028 71.1219 18.7869 71.1219 19.5535C71.1219 20.5027 70.7204 21.2329 69.9355 21.7805C69.1506 22.3281 68.0736 22.6019 66.7046 22.6019C65.2808 22.6019 64.1674 22.3098 63.3642 21.7257Z" fill="#0E0E0E"/>
<path d="M71.8472 23.5693H72.7782C73.3623 23.5876 73.8369 23.5145 74.2019 23.3503C74.5488 23.186 74.8773 22.8939 75.1876 22.4558L70.8981 12.818H73.7456L76.5932 19.1519L78.9661 12.818H81.7954L77.9257 23.0034C77.4511 24.1169 76.8304 24.8836 76.0455 25.3216C75.2606 25.7597 74.2567 25.9605 73.0155 25.9605H71.8472V23.5693Z" fill="#0E0E0E"/>
<path d="M82.2492 12.818H84.9507V14.187C85.2793 13.6759 85.6991 13.2561 86.2467 12.964C86.7943 12.6719 87.4332 12.5259 88.1633 12.5259C90.4998 12.5259 91.6862 14.0045 91.6862 16.9433V22.3098H88.9482V17.0893C88.9482 16.3957 88.7839 15.8663 88.4554 15.4647C88.1268 15.0632 87.6705 14.8624 87.0864 14.8624C86.4292 14.8624 85.8999 15.0997 85.5166 15.5743C85.1332 16.0489 84.9507 16.6695 84.9507 17.4544V22.3098H82.2492V12.818Z" fill="#0E0E0E"/>
<path d="M97.0676 22.3828C96.3375 22.3828 95.7716 22.3098 95.37 22.1638C94.9502 22.0178 94.6399 21.7622 94.4574 21.3789C94.2566 20.9956 94.1653 20.448 94.1836 19.7543V15.2822H92.1574L92.3287 12.818H94.1836V10.2625H96.8851V12.818H99.3676L99.1974 15.2822H96.8851V18.367C96.8851 18.8416 96.9033 19.1702 96.9398 19.371C96.9763 19.59 97.0859 19.7361 97.2319 19.8273C97.3779 19.9186 97.6152 19.9551 97.962 19.9551C98.2176 19.9551 98.9466 19.9369 99.3664 19.9003L99.1974 22.2916C98.376 22.3646 97.524 22.3828 97.0676 22.3828Z" fill="#0E0E0E"/>
<path d="M100.389 7.88953H103.09V14.1687C103.419 13.6576 103.839 13.2561 104.386 12.964C104.934 12.6719 105.573 12.5259 106.303 12.5259C108.639 12.5259 109.826 14.0045 109.826 16.925V22.3098H107.088V17.0528C107.088 16.3592 106.923 15.8298 106.595 15.4465C106.266 15.0632 105.81 14.8624 105.226 14.8624C104.569 14.8624 104.039 15.0997 103.656 15.556C103.273 16.0306 103.09 16.6512 103.09 17.4179V22.3098H100.389V7.88953Z" fill="#0E0E0E"/>
<path d="M113.231 21.963C112.465 21.5249 111.881 20.9225 111.461 20.1559C111.041 19.3892 110.84 18.5313 110.84 17.5456C110.84 16.5782 111.041 15.7203 111.461 14.9536C111.881 14.187 112.465 13.6029 113.231 13.1648C113.98 12.745 114.838 12.5259 115.805 12.5259C116.645 12.5259 117.393 12.745 118.069 13.1465C118.744 13.5481 119.273 14.1322 119.675 14.8806C120.058 15.6473 120.259 16.5052 120.259 17.4909V18.367H113.596C113.651 19.0059 113.87 19.4988 114.235 19.8638C114.6 20.2289 115.13 20.3932 115.823 20.3932C116.28 20.3932 116.663 20.2837 116.955 20.0646C117.247 19.8456 117.43 19.5718 117.503 19.225H120.204C120.058 20.2472 119.565 21.0686 118.762 21.6892C117.959 22.3098 116.973 22.6019 115.805 22.6019C114.838 22.6019 113.98 22.4011 113.231 21.963ZM117.539 16.706C117.503 16.1584 117.338 15.7203 117.01 15.3735C116.681 15.0449 116.243 14.8624 115.696 14.8624C115.075 14.8624 114.6 15.0267 114.254 15.3552C113.907 15.6838 113.688 16.1401 113.615 16.706H117.539Z" fill="#0E0E0E"/>
<path d="M122.292 21.7257C121.471 21.1416 121.051 20.3202 121.033 19.2797H123.716C123.716 19.7361 123.917 20.0829 124.282 20.3384C124.647 20.594 125.122 20.7218 125.706 20.7218C126.199 20.7218 126.6 20.6305 126.892 20.4114C127.184 20.1924 127.349 19.9369 127.349 19.6448C127.349 19.298 127.166 19.0607 126.801 18.9147C126.436 18.7869 125.888 18.6591 125.122 18.5496C124.319 18.4401 123.661 18.3123 123.15 18.1663C122.639 18.0202 122.183 17.7464 121.818 17.3449C121.453 16.9433 121.27 16.3774 121.27 15.6473C121.27 14.6981 121.654 13.9314 122.457 13.3656C123.26 12.818 124.355 12.5259 125.742 12.5259C127.002 12.5259 128.006 12.8362 128.772 13.4386C129.539 14.041 129.959 14.8624 130.05 15.9028H127.385C127.349 15.4465 127.184 15.0814 126.874 14.8076C126.545 14.5521 126.126 14.406 125.578 14.406C125.067 14.406 124.684 14.5156 124.41 14.7163C124.118 14.9354 123.99 15.2092 123.99 15.5378C123.99 15.8663 124.154 16.1036 124.501 16.2314C124.848 16.3774 125.396 16.4869 126.126 16.5599C126.929 16.6695 127.604 16.8155 128.134 16.9615C128.645 17.1076 129.101 17.3996 129.484 17.8012C129.849 18.2028 130.05 18.7869 130.05 19.5535C130.05 20.5027 129.649 21.2329 128.864 21.7805C128.079 22.3281 127.002 22.6019 125.633 22.6019C124.209 22.6019 123.096 22.3098 122.292 21.7257Z" fill="#0E0E0E"/>
<path d="M131.29 11.1752C130.962 10.8466 130.797 10.445 130.797 9.93392C130.797 9.45933 130.962 9.05775 131.29 8.72919C131.619 8.41888 132.02 8.2546 132.532 8.2546C133.024 8.2546 133.426 8.41888 133.754 8.72919C134.083 9.05775 134.247 9.45933 134.247 9.93392C134.247 10.4268 134.083 10.8283 133.754 11.1569C133.426 11.4855 133.024 11.6498 132.532 11.6498C132.02 11.6498 131.619 11.5037 131.29 11.1752ZM131.162 12.818H133.882V22.3098H131.162V12.818Z" fill="#0E0E0E"/>
<path d="M142.759 21.7257C143.58 21.1416 144 20.3202 144.018 19.2797H141.335C141.335 19.7361 141.134 20.0829 140.769 20.3384C140.404 20.594 139.93 20.7218 139.345 20.7218C138.853 20.7218 138.451 20.6305 138.159 20.4114C137.867 20.1924 137.703 19.9369 137.703 19.6448C137.703 19.298 137.885 19.0607 138.25 18.9147C138.615 18.7869 139.163 18.6591 139.93 18.5496C140.733 18.4401 141.39 18.3123 141.901 18.1663C142.412 18.0202 142.868 17.7464 143.233 17.3449C143.599 16.9433 143.781 16.3774 143.781 15.6473C143.781 14.6981 143.398 13.9314 142.595 13.3656C141.791 12.818 140.696 12.5259 139.309 12.5259C138.049 12.5259 137.046 12.8362 136.279 13.4386C135.512 14.041 135.092 14.8624 135.001 15.9028H137.666C137.703 15.4465 137.867 15.0814 138.177 14.8076C138.506 14.5521 138.926 14.406 139.473 14.406C139.984 14.406 140.368 14.5156 140.641 14.7163C140.934 14.9354 141.061 15.2092 141.061 15.5378C141.061 15.8663 140.897 16.1036 140.55 16.2314C140.203 16.3774 139.656 16.4869 138.926 16.56C138.122 16.6695 137.447 16.8155 136.918 16.9615C136.407 17.1076 135.95 17.3996 135.567 17.8012C135.202 18.2028 135.001 18.7869 135.001 19.5535C135.001 20.5027 135.403 21.2329 136.188 21.7805C136.973 22.3281 138.049 22.6019 139.418 22.6019C140.842 22.6019 141.956 22.3098 142.759 21.7257Z" fill="#0E0E0E"/>
</svg>

<svg xmlns="http://www.w3.org/2000/svg" width="145" height="33" fill="none" viewBox="0 0 145 33"><path fill="#d1d1d1" fill-rule="evenodd" d="M3.4 19.337c.614.61.614 1.598 0 2.208l-.03.031c-.614.61-1.608.61-2.221 0a1.555 1.555 0 0 1 0-2.208l.031-.031a1.577 1.577 0 0 1 2.22 0" clip-rule="evenodd"/><path fill="#aaa" fill-rule="evenodd" d="M10.784 19.807c.612.611.61 1.6-.004 2.208l-4.35 4.31a1.577 1.577 0 0 1-2.221-.005 1.555 1.555 0 0 1 .004-2.208l4.35-4.309a1.577 1.577 0 0 1 2.22.004" clip-rule="evenodd"/><path fill="#d1d1d1" fill-rule="evenodd" d="M16.687 27.225a1.576 1.576 0 0 1 2.177-.433l.095.063c.721.478.916 1.447.435 2.165a1.576 1.576 0 0 1-2.177.433l-.095-.063a1.556 1.556 0 0 1-.435-2.165" clip-rule="evenodd"/><path fill="#aaa" fill-rule="evenodd" d="M27.05 19.243c.614.61.614 1.598 0 2.208l-2.135 2.124c-.613.61-1.608.61-2.22 0a1.555 1.555 0 0 1 0-2.209l2.135-2.123a1.577 1.577 0 0 1 2.22 0" clip-rule="evenodd"/><path fill="#969696" fill-rule="evenodd" d="M27.082 11.39c.613.61.613 1.598 0 2.208L11.3 29.288c-.613.61-1.608.61-2.22 0a1.555 1.555 0 0 1 0-2.207L24.86 11.39a1.577 1.577 0 0 1 2.221 0m-2.983-4.825c.613.61.613 1.599 0 2.208l-9.077 9.025c-.613.61-1.607.61-2.22 0a1.555 1.555 0 0 1 0-2.208l9.076-9.025a1.577 1.577 0 0 1 2.22 0m-4.79-3.061c.614.61.614 1.598.001 2.208L7.641 17.328a1.577 1.577 0 0 1-2.221.002 1.555 1.555 0 0 1-.002-2.208L17.086 3.506a1.577 1.577 0 0 1 2.22-.002" clip-rule="evenodd"/><path fill="#aaa" fill-rule="evenodd" d="M7.752 7.223c.613.61.611 1.6-.003 2.208l-4.57 4.528a1.577 1.577 0 0 1-2.221-.004c-.612-.61-.61-1.6.004-2.208l4.57-4.528a1.577 1.577 0 0 1 2.22.004" clip-rule="evenodd"/><path fill="#d1d1d1" fill-rule="evenodd" d="M10.551 2.704c.868 0 1.57.7 1.57 1.562v.156c0 .862-.702 1.561-1.57 1.561-.867 0-1.57-.699-1.57-1.561v-.156c0-.863.703-1.562 1.57-1.562" clip-rule="evenodd"/><path fill="#0e0e0e" d="M45.291 16.067c.457.62.694 1.387.694 2.264 0 .766-.2 1.442-.584 2.044a3.85 3.85 0 0 1-1.625 1.424c-.693.346-1.478.51-2.354.51h-7.12V7.89h6.645c1.369 0 2.446.347 3.25 1.041.784.694 1.186 1.606 1.186 2.756 0 .767-.183 1.442-.548 1.99-.365.547-.876.95-1.515 1.168.84.183 1.497.603 1.971 1.223m-8.14-2.245h2.865c.84 0 1.46-.11 1.862-.365.401-.256.602-.639.602-1.168 0-.548-.219-.968-.639-1.242-.42-.255-1.058-.401-1.916-.401H37.15zm5.256 5.312c.42-.274.64-.694.64-1.278 0-.53-.22-.931-.621-1.187-.402-.255-1.04-.383-1.899-.383H37.15v3.267h3.304c.876 0 1.515-.127 1.953-.42m5.081-7.959c-.328-.328-.493-.73-.493-1.241q0-.712.493-1.205c.329-.31.73-.474 1.241-.474.493 0 .895.164 1.223.474q.493.493.493 1.205c0 .493-.164.894-.493 1.223s-.73.493-1.223.493c-.51 0-.912-.146-1.24-.475m-.128 1.643h2.72v9.492h-2.72zm6.266 9.145a4.6 4.6 0 0 1-1.79-1.807c-.437-.767-.638-1.625-.638-2.61 0-.968.2-1.826.639-2.592.42-.767 1.022-1.351 1.789-1.79.766-.419 1.642-.638 2.628-.638s1.862.219 2.629.639a4.7 4.7 0 0 1 1.788 1.789c.439.766.658 1.624.658 2.592 0 .985-.22 1.843-.657 2.61a4.77 4.77 0 0 1-1.808 1.807c-.766.438-1.642.639-2.61.639-.986 0-1.862-.2-2.628-.639m4.326-2.464c.438-.511.657-1.15.657-1.953 0-.785-.22-1.424-.657-1.935-.438-.493-1.004-.749-1.698-.749s-1.241.256-1.68.749c-.437.51-.656 1.15-.656 1.935 0 .803.219 1.442.657 1.953.438.51.986.766 1.68.766q1.04 0 1.697-.766m5.411 2.227c-.821-.584-1.241-1.406-1.26-2.446h2.684c0 .456.2.803.566 1.058q.548.384 1.424.384c.492 0 .894-.091 1.186-.31.292-.22.456-.475.456-.767 0-.347-.182-.584-.547-.73-.365-.128-.913-.256-1.68-.365q-1.205-.165-1.97-.384a2.83 2.83 0 0 1-1.333-.821q-.548-.603-.548-1.698c0-.949.383-1.716 1.187-2.281.803-.548 1.898-.84 3.285-.84 1.26 0 2.264.31 3.03.913.767.602 1.187 1.423 1.278 2.464h-2.665c-.037-.457-.2-.822-.511-1.095-.329-.256-.749-.402-1.296-.402-.511 0-.895.11-1.168.31a.97.97 0 0 0-.42.822c0 .328.164.566.51.693.348.146.895.256 1.625.329.804.11 1.479.256 2.008.402.511.146.968.438 1.351.84.365.4.566.985.566 1.752 0 .949-.402 1.679-1.186 2.227q-1.177.82-3.231.82-2.137 0-3.34-.875"/><path fill="#0e0e0e" d="M71.847 23.57h.931q.876.027 1.424-.22c.347-.164.675-.456.986-.894l-4.29-9.638h2.848l2.847 6.334 2.373-6.334h2.83l-3.87 10.185c-.475 1.114-1.096 1.88-1.88 2.319-.785.438-1.79.639-3.03.639h-1.169zM82.25 12.818h2.7v1.369c.33-.511.75-.93 1.297-1.223q.82-.438 1.916-.438c2.337 0 3.523 1.479 3.523 4.417v5.367h-2.738v-5.22c0-.694-.164-1.224-.493-1.625q-.492-.603-1.369-.603c-.657 0-1.186.238-1.57.712-.383.475-.565 1.095-.565 1.88v4.856h-2.702zm14.818 9.565q-1.095 0-1.698-.22c-.42-.145-.73-.4-.913-.784-.2-.383-.292-.931-.273-1.625v-4.472h-2.027l.172-2.464h1.855v-2.556h2.701v2.556h2.483l-.17 2.464h-2.313v3.085c0 .475.018.803.055 1.004a.64.64 0 0 0 .292.456c.146.092.383.128.73.128.256 0 .985-.018 1.404-.055l-.169 2.392a26 26 0 0 1-2.13.09m3.322-14.492h2.701v6.279a3.44 3.44 0 0 1 1.296-1.205q.822-.438 1.917-.438c2.336 0 3.523 1.479 3.523 4.399v5.385h-2.738v-5.257c0-.694-.165-1.223-.493-1.607-.329-.383-.785-.584-1.369-.584-.657 0-1.187.238-1.57.694-.383.475-.566 1.095-.566 1.862v4.892h-2.701zm12.842 14.073a4.56 4.56 0 0 1-1.77-1.807c-.42-.767-.621-1.625-.621-2.61 0-.968.201-1.826.621-2.592a4.5 4.5 0 0 1 1.77-1.79c.749-.419 1.607-.638 2.574-.638.84 0 1.588.219 2.264.62.675.402 1.204.986 1.606 1.735.383.766.584 1.624.584 2.61v.876h-6.663c.055.639.274 1.132.639 1.497s.895.53 1.588.53c.457 0 .84-.11 1.132-.33a1.37 1.37 0 0 0 .548-.839h2.701c-.146 1.022-.639 1.844-1.442 2.464s-1.789.913-2.957.913c-.967 0-1.825-.2-2.574-.639m4.308-5.257c-.036-.548-.201-.986-.529-1.332-.329-.33-.767-.512-1.314-.512-.621 0-1.096.165-1.442.493-.347.329-.566.785-.639 1.351zm4.753 5.02c-.821-.584-1.241-1.406-1.259-2.446h2.683c0 .456.201.803.566 1.058q.548.384 1.424.384c.493 0 .894-.091 1.186-.31.292-.22.457-.475.457-.767 0-.347-.183-.584-.548-.73-.365-.128-.913-.256-1.679-.365q-1.205-.165-1.972-.384a2.83 2.83 0 0 1-1.332-.821q-.548-.603-.548-1.698c0-.949.384-1.716 1.187-2.281.803-.548 1.898-.84 3.285-.84 1.26 0 2.264.31 3.03.913.767.602 1.187 1.423 1.278 2.464h-2.665c-.036-.457-.201-.822-.511-1.095-.329-.256-.748-.402-1.296-.402-.511 0-.894.11-1.168.31a.97.97 0 0 0-.42.822c0 .328.164.566.511.693.347.146.895.256 1.625.329a16 16 0 0 1 2.008.402 3 3 0 0 1 1.35.84c.365.4.566.985.566 1.752 0 .949-.401 1.679-1.186 2.227q-1.177.82-3.231.82-2.136 0-3.341-.875m8.998-10.551c-.328-.328-.493-.73-.493-1.241q0-.712.493-1.205c.329-.31.73-.474 1.242-.474.492 0 .894.164 1.222.474q.493.493.493 1.205c0 .493-.164.894-.493 1.223s-.73.493-1.222.493c-.512 0-.913-.146-1.242-.475m-.128 1.643h2.72v9.492h-2.72zm11.597 8.908c.821-.584 1.241-1.406 1.259-2.446h-2.683c0 .456-.201.803-.566 1.058q-.547.384-1.424.384c-.492 0-.894-.091-1.186-.31-.292-.22-.456-.475-.456-.767 0-.347.182-.584.547-.73.365-.128.913-.256 1.68-.365q1.204-.165 1.971-.384c.511-.146.967-.42 1.332-.821q.548-.603.548-1.698c0-.949-.383-1.716-1.186-2.281-.804-.548-1.899-.84-3.286-.84-1.26 0-2.263.31-3.03.913-.767.602-1.187 1.423-1.278 2.464h2.665c.037-.457.201-.822.511-1.095.329-.256.749-.402 1.296-.402.511 0 .895.11 1.168.31a.97.97 0 0 1 .42.822c0 .328-.164.566-.511.693-.347.146-.894.256-1.624.329a16 16 0 0 0-2.008.402 3 3 0 0 0-1.351.84c-.365.4-.566.985-.566 1.752 0 .949.402 1.679 1.187 2.227q1.177.82 3.23.82 2.136 0 3.341-.875"/></svg>
